X:3250
T:Come to the Bower. JC.071
T:Vandalls of Hammerwich,aka. JC.071
T:Will You Come To The Bower,aka. JC.071
M:2/4
L:1/8
Q:220
S:John Clare,Poet,Helpston. (1793-1864)
R:Misc.
O:England
A:Northamptonshire
Z:P Headford
K:G
B/c/|d2dd|d3d|dgfe|{e}d2zd|(dc)cc|(cB)BB|dcAB|G2z|!
|z|GBBB|GBBB|d2c>c|B2z2|GBBB|GB dg|!
dBcA|G2zg|(gd)dd|(dB)BB|(cA)AA|G2z|]
W:Song text exists. See Deacon.


